public/media/theme/logo-login.svg

<svg width="70" height="70" viewBox="0 0 70 70" xmlns="http://www.w3.org/2000/svg"><title>Logo</title><defs><linearGradient x1="50%" y1="0%" x2="50%" y2="100%" id="a"><stop stop-color="#2EA1F8" offset="0%"/><stop stop-color="#1A91EB" offset="100%"/></linearGradient></defs><g fill="none" fill-rule="evenodd"><circle fill="url(#a)" cx="35" cy="35" r="35"/><path d="M24 24l4.926 19.497 9.567-3.041-8.538-10.377 11.017 9.633 8.946-2.79L24 24zm11.645 18.917l3.149 4.433v-5.364l-3.149.931z" fill="#FFF"/></g></svg>

<?xml version="1.0" encoding="UTF-8"?>
<svg width="70px" height="70px" viewBox="0 0 70 70" version="1.1" xmlns="http://www.w3.org/2000/svg" xmlns:xlink="http://www.w3.org/1999/xlink">
    <!-- Generator: Sketch 43.1 (39012) - http://www.bohemiancoding.com/sketch -->
    <title>Logo</title>
    <desc>Created with Sketch.</desc>
    <defs>
        <linearGradient x1="50%" y1="0%" x2="50%" y2="100%" id="linearGradient-1">
            <stop stop-color="#2EA1F8" offset="0%"></stop>
            <stop stop-color="#1A91EB" offset="100%"></stop>
        </linearGradient>
    </defs>
    <g id="Popups---Source-Sans-Pro" stroke="none" stroke-width="1" fill="none" fill-rule="evenodd">
        <g id="P1---Login-1" transform="translate(-755.000000, -181.000000)">
            <g id="Logo" transform="translate(755.000000, 181.000000)">
                <circle id="Base" fill="url(#linearGradient-1)" cx="35" cy="35" r="35"></circle>
                <path d="M24,24 L28.926,43.497 L38.493,40.456 L29.955,30.079 L40.972,39.712 L49.918,36.922 L24,24 Z M35.645,42.917 L38.794,47.35 L38.794,41.986 L35.645,42.917 Z" id="logo-icon" fill="#FFFFFF"></path>
            </g>
        </g>
    </g>
</svg>
